X:1
T:We Are Going
T:William Batchelder Bradbury
T:We Are Going
T:Public Domain
T:Public Domain
T:Public Domain
C:William Batchelder Bradbury
Z:Public Domain
%%score ( 1 2 ) ( 3 4 )
L:1/8
M:4/4
K:Bb
V:1 treble 
V:2 treble 
V:3 bass 
V:4 bass 
V:1
 [B,D][CE] | [DF]2 [DB]4 [DB][FA] | [EG]2 [Gc]4 [GB][GB] | [FA]3 [EG] [CF]2 [CE]2 | %4
w: 1.~We are|go- ing, we are|go- ing, To a|home be- yond the|
w: 2.~We are|go- ing, we are|go- ing, And the|mu- sic we have|
w: 3.~We are|go- ing, we are|go- ing, When this|mor- tal life is|
 ([EG]2 [DF]4) [B,D][CE] | [DF]2 [DB]4 [DB][FA] | [EG]2 [Gc]4 [GB][GB] | [FA]2 [FB]2 [Fd]3 [Ec] | %8
w: skies, * Where the|fields are robed in|beau- ty, And the|sun- light ne- ver|
w: heard * Like the|e- cho of the|wood- land, Or the|car- ol of a|
w: o’er, * To that|pure and hap- py|re- gion Where our|friends have gone be-|
 [DB]6 [FA][FB] | [Fc]2 [Fc]2 [Fd]2 [Fc]2 | [Fc]4 [FA]2 [Fc][Fc] | [=Ec]2 [EG]2 [Ed]2 [Ec]2 | %12
w: dies; Where the|fount of joy is|flow- ing, In the|val- ley green and|
w: bird; With the|ros- y light of|morn- ing On the|calm and frag- rant|
w: fore; They are|sing- ing with the|an- gels In that|land so bright and|
 [FA]6 [FA][FA] | [Fc]2 [Fc]2 [Fd]2 [Fc]2 | [Fc]4 [FA]2 [Fc][Fc] | [Fc]2 F2 [FA]2 [=EG]2 | %16
w: fair, We shall|dwell in love to-|ge- ther; There will|be no part- ing|
w: air, Still it|mur- murs, soft- ly|mur- murs, There will|be no part- ing|
w: fair; We shall|dwell with them for-|ev- er; There will|be no part- ing|
 (F2 C4) ||"^Refrain" [B,D][CE] | [DF]2 [DB]4 [DB][FA] | [EG]2 [Gc]4 [GB][GB] | %20
w: ||||
w: We *|go- ing,|we are go- ing,|To a home be-|
w: ||||
 [FA]3 [EG] [CF]2 [CE]2 | ([EG]2 [DF]4) [B,D][CE] | [DF]2 [DB]2 [DB]2 [FA]2 | %23
w: |||
w: yond the skies, Where|the * fields are|robed in beau- ty,|
w: |||
 [EG]2 [Gc]4 [GB][GB] | [FA]2 [FB]2 [Fd]3 [Ec] | [DB]6 |] %26
w: |||
w: And the sun- light|ne- ver dies. *||
w: |||
V:2
 x2 | x8 | x8 | x8 | x8 | x8 | x8 | x8 | x8 | x8 | x8 | x8 | x8 | x8 | x8 | x2 F2 x4 | F6 || x2 | %18
w: |||||||||||||||there.|||
w: |||||||||||||||there.|are||
w: |||||||||||||||there.|||
 x8 | x8 | x8 | x8 | x8 | x8 | x8 | x6 |] %26
w: ||||||||
w: ||||||||
w: ||||||||
V:3
 [B,,F,][B,,F,] | [B,,F,]2 [B,,F,]4 [B,,B,][D,B,] | [E,B,]2 [E,E]4 [=E,C][E,C] | %3
 [F,C]3 [F,C] [F,A,]2 [F,A,]2 | [B,,B,]6 [B,,F,][B,,F,] | [B,,F,]2 [B,,F,]4 [B,,B,][D,B,] | %6
 [E,B,]2 [E,E]4 [E,E][E,E] | [F,E]2 [F,D]2 [F,A,]3 [F,A,] | [B,,B,]6 F,[F,G,] | %9
 [F,A,]2 [F,A,]2 [F,B,]2 [F,A,]2 | [F,A,]4 [F,C]2 [F,A,][F,A,] | [C,G,]2 [C,C]2 [C,C]2 [C,C]2 | %12
 [F,C]6 F,[F,G,] | [F,A,]2 [F,A,]2 [F,B,]2 [F,A,]2 | [F,A,]4 [F,C]2 [F,A,][F,A,] | %15
 [F,A,]2 [F,A,]2 [C,C]2 [C,B,]2 | (F,4 F,E,) || [D,B,][C,F,] | [B,,F,]2 [B,,F,]4 [B,,B,][D,B,] | %19
 [E,B,]2 [E,E]4 [=E,C][E,C] | [F,C]3 [F,C] [F,A,]2 [F,A,]2 | [B,,B,]6 [B,,F,][B,,F,] | %22
 [B,,F,]2 [B,,F,]2 [B,,B,]2 [D,B,]2 | [E,B,]2 [E,E]4 [E,E][E,E] | [F,E]2 [F,D]2 [F,A,]3 [F,A,] | %25
 [B,,B,]6 |] %26
V:4
 x2 | x8 | x8 | x8 | x8 | x8 | x8 | x8 | x6 F, x | x8 | x8 | x8 | x6 F, x | x8 | x8 | x8 | A,6 || %17
 x2 | x8 | x8 | x8 | x8 | x8 | x8 | x8 | x6 |] %26

